X:1
T:Title
%%score { ( 1 3 ) | ( 2 4 ) }
L:1/8
Q:1/4=100
M:4/4
K:Eb
V:1 treble nm="Grand Piano"
V:3 treble 
V:2 bass 
V:4 bass 
V:1
 E3 F G2 [GB]2 | [_Gc]3 [CG=A] [E=GB]2 [B,EG]2 | [CE]3 [=A,EF] [B,EG]2 [G,B,E]2 | %3
w: Edwin~H.~Bookmyer * * *|||
 [A,B,D]3 [G,B,E] [DA]4 | F3 G A2 e2 | [Fd]3 [Dc] B2 G2 | G3 G [E=A]2 B2 | d3 c [DB]4 | %8
w: |||||
 G3 A B2 e2 | F3 G A4 | [Fd]3 [Ec] [DB]2 F2 | [_Gc]3 [G=A] [=GB]4 | [GB]3 [GB] [Ge]2 [Ge]2 | %13
w: |||||
 [_Gd]3 [Gc] [B,=GB]2 [_D_GB]2 | [C=Ec]3 [CEB] [CFA]2 [C_EG]2 | E2 z2 z4 |] %16
w: |||
V:2
 [E,G,]3 [E,A,E] [E,B,E]2 [E,E]2 | [E,=A,]3 E, E,2 E,2 | C,3 =B,, _B,,2 E,2 | F,3 E, [B,,F,]4 | %4
 [A,B,D]3 [G,B,D] [F,B,D]2 [E,CE]2 | [B,,B,]3 [B,,A,] [E,G,E]2 [E,B,E]2 | %6
 [E,B,E]3 [E,B,E] [C,C]2 [G,C=E]2 | [F,=A,F]3 [F,A,E] [B,,B,]4 | [E,B,E]3 [F,B,D] [G,E]2 [G,B,E]2 | %9
 [A,CE]3 [G,C=E] [F,CF]4 | [B,,A,]3 [B,,A,] [B,,F,]2 [D,B,]2 | [E,=A,]3 [E,C] [E,E]4 | %12
 [E,E]3 [E,B,] [C,C]2 [C,C]2 | [D,=A,]3 [D,A,] G,2 G,2 | C,3 C, F,,2 G,,A,, | z2 DB,, E,4 |] %16
V:3
 x8 | x8 | x8 | x8 | x8 | x8 | x8 | x8 | x8 | x8 | x8 | x8 | x8 | x8 | x8 | [B,G]3 [A,DF] [G,E]4 |] %16
V:4
 x8 | x8 | x8 | x8 | x8 | x8 | x8 | x8 | x8 | x8 | x8 | x8 | x8 | x8 | x8 | B,,4 z4 |] %16

